X:1
T:The Hiccup Jig
C:Brian Pickell
D:Brian Pickell:Fresh Canadian Fiddle Tunes
Z:robin.beech@mcgill.ca
L:1/8
M:6/8
R:jig
K:Amin
A,EA, F2E | A,2 B,CB, A, | G,A,C DCD | EAG EDC | A,EA, F2E |
A,2 B,CB, C | EAB cBA |1 EGE DCB, :|2 EGE EDE
K:Emin
|: A3 ABA | GEF GAB | c3 ced | cAG cAG |
A3 ABA | GEF GFE | DEG AGA | Bed BAG :|
K:D
|: B3 BAG | BAG EFG | B3 Bed | BAG ABd |
e3 efe | dBc dcB | ABA FED | EFA FED :|
